resource/star.svg

<svg width="22" height="20" viewBox="0 0 22 20" fill="none" xmlns="http://www.w3.org/2000/svg">
<path d="M10.312 0.427L7.484 6.146L6.892 6.231L2.417 6.88L1.157 7.062C0.528998 7.154 0.276998 7.925 0.731998 8.368L5.31 12.819L5.208 13.407L4.443 17.86L4.229 19.104C4.144 19.598 4.538 20 4.985 20C5.104 20 5.225 19.972 5.342 19.91L11 16.943L16.658 19.91C16.775 19.972 16.896 20 17.015 20C17.461 20 17.855 19.598 17.771 19.104L17.556 17.86L16.79 13.408L16.688 12.819L21.266 8.368C21.721 7.925 21.469 7.154 20.841 7.062L19.584 6.88L15.109 6.231L14.515 6.146L11.687 0.427C11.547 0.143 11.273 0 11 0C10.727 0 10.453 0.143 10.312 0.427Z" fill="#9772E1"/>
</svg>

<?xml version="1.0" encoding="utf-8"?>
<!-- Generator: Adobe Illustrator 26.4.1, SVG Export Plug-In . SVG Version: 6.00 Build 0)  -->
<svg version="1.1" id="Layer_1" xmlns="http://www.w3.org/2000/svg" xmlns:xlink="http://www.w3.org/1999/xlink" x="0px" y="0px"
	 viewBox="0 0 22 20" style="enable-background:new 0 0 22 20;" xml:space="preserve">
<style type="text/css">
	.st0{fill:#960F5B;}
</style>
<path class="st0" d="M10.3,0.4L7.5,6.1L6.9,6.2L2.4,6.9L1.2,7.1C0.5,7.2,0.3,7.9,0.7,8.4l4.6,4.5l-0.1,0.6l-0.8,4.5l-0.2,1.2
	C4.1,19.6,4.5,20,5,20c0.1,0,0.2,0,0.4-0.1l5.7-3l5.7,3C16.8,20,16.9,20,17,20c0.4,0,0.8-0.4,0.8-0.9l-0.2-1.2l-0.8-4.5l-0.1-0.6
	l4.6-4.5c0.5-0.4,0.2-1.2-0.4-1.3l-1.3-0.2l-4.5-0.6l-0.6-0.1l-2.8-5.7C11.5,0.1,11.3,0,11,0S10.5,0.1,10.3,0.4z"/>
</svg>
